blockchains/tezos/logo.svg

<svg fill="none" height="250" viewBox="0 0 250 250" width="250" xmlns="http://www.w3.org/2000/svg" xmlns:xlink="http://www.w3.org/1999/xlink"><clipPath id="a"><path d="m0 0h250v250h-250z"/></clipPath><g clip-path="url(#a)"><path clip-rule="evenodd" d="m125 0c69.025 0 125 55.975 125 125s-55.975 125-125 125-125-55.975-125-125 55.975-125 125-125z" fill="#fff" fill-rule="evenodd"/><path d="m193.479 167.697c-1.986-32.438-46.201-47.182-50.432-48.697-.173-.079-.173-.239-.086-.398l45.596-42.241v-4.5429c0-.7173-.691-1.3549-1.469-1.3549h-84.024v-25.4243-7.6512l-31.0014 5.9775v4.3038h1.7271s7.5993 0 7.5993 7.0136v15.7009h-24.0069c-.4318 0-.8635.3985-.8635.797v9.9625h24.9568v22.954 31.162c0 16.976 11.8307 28.772 32.5566 27.178 4.404-.319 8.462-1.913 11.917-3.985 1.554-.956 2.504-2.471 2.504-4.224v-5.34c-6.736 4.144-12.435 3.905-12.435 3.905-13.126 0-12.867-15.382-12.867-15.382v-56.268h60.449l-43.524 40.488c-.086 5.339-.172 9.484-.172 9.564 0 .159.086.239.259.239 39.896 6.216 50.691 30.047 50.691 36.98 0 0 4.317 33.713-32.211 36.025 0 0-23.921.956-28.152-7.891-.173-.318 0-.637.345-.797 3.973-1.673 6.65-4.941 6.65-9.324 0-6.536-4.318-11.876-13.385-11.876-7.3406 0-13.3856 5.34-13.3856 11.876 0 0-3.4542 28.373 47.8416 27.576 58.549-.957 54.922-46.306 54.922-46.306z" fill="#0d61ff"/></g></svg>

<svg width="250" height="250" viewBox="0 0 250 250" fill="none" xmlns="http://www.w3.org/2000/svg">
<g clip-path="url(#clip0_7_362)">
<path fill-rule="evenodd" clip-rule="evenodd" d="M125 0C194.025 0 250 55.975 250 125C250 194.025 194.025 250 125 250C55.975 250 0 194.025 0 125C0 55.975 55.975 0 125 0Z" fill="white"/>
<path d="M193.479 167.697C191.493 135.259 147.278 120.515 143.047 119C142.874 118.921 142.874 118.761 142.961 118.602L188.557 76.361V71.8181C188.557 71.1008 187.866 70.4632 187.088 70.4632H103.064V45.0389V37.3877L72.0626 43.3652V47.669H73.7897C73.7897 47.669 81.389 47.669 81.389 54.6826V70.3835H57.3821C56.9503 70.3835 56.5186 70.782 56.5186 71.1805V81.143H81.4754C81.4754 81.143 81.4754 91.7431 81.4754 104.097V135.259C81.4754 152.235 93.3061 164.031 114.032 162.437C118.436 162.118 122.494 160.524 125.949 158.452C127.503 157.496 128.453 155.981 128.453 154.228V148.888C121.717 153.032 116.018 152.793 116.018 152.793C102.892 152.793 103.151 137.411 103.151 137.411V81.143H163.6L120.076 121.631C119.99 126.97 119.904 131.115 119.904 131.195C119.904 131.354 119.99 131.434 120.163 131.434C160.059 137.65 170.854 161.481 170.854 168.414C170.854 168.414 175.171 202.127 138.643 204.439C138.643 204.439 114.722 205.395 110.491 196.548C110.318 196.23 110.491 195.911 110.836 195.751C114.809 194.078 117.486 190.81 117.486 186.427C117.486 179.891 113.168 174.551 104.101 174.551C96.7604 174.551 90.7154 179.891 90.7154 186.427C90.7154 186.427 87.2612 214.8 138.557 214.003C197.106 213.046 193.479 167.697 193.479 167.697Z" fill="#0D61FF"/>
</g>
<defs>
<clipPath id="clip0_7_362">
<rect width="250" height="250" fill="white"/>
</clipPath>
</defs>
</svg>
